Newaita/actions/16/event-new.svg

<svg height="16" viewBox="0 0 16 16" width="16" xmlns="http://www.w3.org/2000/svg"><g fill="#424242"><path d="m2.644531 1.449219c-.730469 0-1.320312.589843-1.320312 1.320312v10.585938c0 .734375.589843 1.324219 1.320312 1.324219h5.957031v-1.324219h-5.292968c-.367188 0-.664063-.296875-.664063-.660157v-9.261718c0-.367188.296875-.664063.664063-.664063h9.261718c.363282 0 .660157.296875.660157.664063v5.292968h1.324219v-5.957031c0-.730469-.589844-1.320312-1.324219-1.320312zm0 0"/><path d="m11.246094 3.433594c.363281 0 .660156.296875.660156.660156 0 .367188-.296875.660156-.660156.660156-.367188 0-.660156-.292968-.660156-.660156 0-.363281.292968-.660156.660156-.660156zm0 0"/><path d="m1.984375 5.417969h11.90625v.660156h-11.90625zm0 0"/><path d="m4.628906 3.433594c.367188 0 .664063.296875.664063.660156 0 .367188-.296875.660156-.664063.660156-.363281 0-.660156-.292968-.660156-.660156 0-.363281.296875-.660156.660156-.660156zm0 0"/><path d="m10.253906 11.703125h3.96875c.183594 0 .332032.148437.332032.328125v.664062c0 .179688-.148438.328126-.332032.328126h-3.96875c-.183594 0-.332031-.148438-.332031-.328126v-.664062c0-.179688.148437-.328125.332031-.328125zm0 0"/><path d="m12.898438 10.378906v3.96875c0 .183594-.148438.332032-.328126.332032h-.664062c-.179688 0-.328125-.148438-.328125-.332032v-3.96875c0-.183594.148437-.332031.328125-.332031h.664062c.179688 0 .328126.148437.328126.332031zm0 0"/></g></svg>

<?xml version="1.0" encoding="UTF-8"?>
<svg xmlns="http://www.w3.org/2000/svg" xmlns:xlink="http://www.w3.org/1999/xlink" width="16px" height="16px" viewBox="0 0 16 16" version="1.1">
<g id="surface1">
<path style=" stroke:none;fill-rule:nonzero;fill:rgb(25.882354%,25.882354%,25.882354%);fill-opacity:1;" d="M 2.644531 1.449219 C 1.914062 1.449219 1.324219 2.039062 1.324219 2.769531 L 1.324219 13.355469 C 1.324219 14.089844 1.914062 14.679688 2.644531 14.679688 L 8.601562 14.679688 L 8.601562 13.355469 L 3.308594 13.355469 C 2.941406 13.355469 2.644531 13.058594 2.644531 12.695312 L 2.644531 3.433594 C 2.644531 3.066406 2.941406 2.769531 3.308594 2.769531 L 12.570312 2.769531 C 12.933594 2.769531 13.230469 3.066406 13.230469 3.433594 L 13.230469 8.726562 L 14.554688 8.726562 L 14.554688 2.769531 C 14.554688 2.039062 13.964844 1.449219 13.230469 1.449219 Z M 2.644531 1.449219 "/>
<path style=" stroke:none;fill-rule:nonzero;fill:rgb(25.882354%,25.882354%,25.882354%);fill-opacity:1;" d="M 11.246094 3.433594 C 11.609375 3.433594 11.90625 3.730469 11.90625 4.09375 C 11.90625 4.460938 11.609375 4.753906 11.246094 4.753906 C 10.878906 4.753906 10.585938 4.460938 10.585938 4.09375 C 10.585938 3.730469 10.878906 3.433594 11.246094 3.433594 Z M 11.246094 3.433594 "/>
<path style=" stroke:none;fill-rule:nonzero;fill:rgb(25.882354%,25.882354%,25.882354%);fill-opacity:1;" d="M 1.984375 5.417969 L 13.890625 5.417969 L 13.890625 6.078125 L 1.984375 6.078125 Z M 1.984375 5.417969 "/>
<path style=" stroke:none;fill-rule:nonzero;fill:rgb(25.882354%,25.882354%,25.882354%);fill-opacity:1;" d="M 4.628906 3.433594 C 4.996094 3.433594 5.292969 3.730469 5.292969 4.09375 C 5.292969 4.460938 4.996094 4.753906 4.628906 4.753906 C 4.265625 4.753906 3.96875 4.460938 3.96875 4.09375 C 3.96875 3.730469 4.265625 3.433594 4.628906 3.433594 Z M 4.628906 3.433594 "/>
<path style=" stroke:none;fill-rule:nonzero;fill:rgb(25.882354%,25.882354%,25.882354%);fill-opacity:1;" d="M 10.253906 11.703125 L 14.222656 11.703125 C 14.40625 11.703125 14.554688 11.851562 14.554688 12.03125 L 14.554688 12.695312 C 14.554688 12.875 14.40625 13.023438 14.222656 13.023438 L 10.253906 13.023438 C 10.070312 13.023438 9.921875 12.875 9.921875 12.695312 L 9.921875 12.03125 C 9.921875 11.851562 10.070312 11.703125 10.253906 11.703125 Z M 10.253906 11.703125 "/>
<path style=" stroke:none;fill-rule:nonzero;fill:rgb(25.882354%,25.882354%,25.882354%);fill-opacity:1;" d="M 12.898438 10.378906 L 12.898438 14.347656 C 12.898438 14.53125 12.75 14.679688 12.570312 14.679688 L 11.90625 14.679688 C 11.726562 14.679688 11.578125 14.53125 11.578125 14.347656 L 11.578125 10.378906 C 11.578125 10.195312 11.726562 10.046875 11.90625 10.046875 L 12.570312 10.046875 C 12.75 10.046875 12.898438 10.195312 12.898438 10.378906 Z M 12.898438 10.378906 "/>
</g>
</svg>
